X:1
T:Trois Chansons de Bilitis
T:le Tombeau des Naïades
T:3. Le Tombeau des Naïades
T:Claude Debussy
T:Pierre Louÿs
T:Trois Chansons de Bilitis
T:OpenScore (CC0)
T:OpenScore (CC0)
T:OpenScore (CC0)
T:OpenScore (CC0)
C:Claude Debussy
Z:Pierre Louÿs
Z:OpenScore (CC0)
%%score 1 { ( 2 3 ) | ( 4 5 ) }
L:1/8
Q:1/4=52
M:4/4
K:A
V:1 treble nm="Chant\nVoice"
V:2 treble nm="Piano"
V:3 treble 
V:4 bass 
V:5 bass 
V:1
"^Très lent" z8 | z!p! D"^Doux et las" DD DD DD |!>(! F3!>)! ^E z2 EE | D6 (DD | %4
w: |Le long du bois cou- vert de|gi- vre, je mar-|chais; mes che-|
 AA GG GF) (3(FG!<(!A | BA (3GFA!<)! _B)!pp!(B dd) | _B/B/B/B/ (3=GGF (3GG=F (3_EED | %7
w: \- veux de- vant ma bou- che se fleu- ris-|saient de pe- tits gla- çons, et mes san-|\- da- les é- taient  lour- des de nei- ge fan- geuse et tas-|
[M:2/4] D2- D z |[M:4/4] z4 z2 CD | F2 (3AAA c3 z | z/ =G/G/A/ A/G/G/A/ AG z/ =c/c/c/ | %11
w: sée. _|Il me|dit: "Que  cher- ches– tu?|Je  suis la tra- ce  du  sa- ty- re. Ses pe- tits|
 d/d/d/d/ e/e/ (3B/B/B/ dB (3=GGB | =G2 z2 (3z GG E2 | (3z =CC (3CCC C2 z2 | z4 z2!p! (3z =CC | %15
w: pas four- chus al- ter- nent  com- me  des  trous dans un man- teau|blanc." Il me dit:|"Les sa- ty- res sont morts.|Les sa-|
 ^C/C/^D/D/ (3FFG C2 z/ C/C/=D/ | =GE EF (3FEF F/E/E/F/ | ^GC z z/ =C/ =D/D/E/E/ =G/G/ (3A/A/A/ | %18
w: ty- res et les nym- phes aus- si. De- puis trente|ans, il n'a pas fait un hi- ver aus- si ter-|ri- ble. La tra- ce que tu vois est cel- le d'un|
 _B2- B z z4 |[M:2/4] z4 |[M:4/4]!p! z"^Très doux" D (3DDD G!>(!F (3EE_E!>)! | %21
w: bouc. _||Mais  res- tons i- ci, où est leur  tom-|
 D2 z2 z/!<(! =E/F/G/ _B/=c/B/c/!<)! |!mf! _e=c"^crescendo" (3ccc e/e/e/e/ (3ccc | %23
w: \- beau." Et a- vec le fer de sa|houe il cas- sa la gla- ce de la   source où ja-|
[M:2/4] ^dd (3ddd ||[K:F#][M:4/4]!f!!>(! (f3 A)!>)! A2 z2 | z2"^dim." ed cc (3BBB | %26
w: \- dis ri- aient les na-|ïa- * des.|Il pre- nait de grands mor- ceaux|
!p! A2 =A/=G/G/A/ AG GA | B2 (3BBB B2!<(! ^GB!<)! |!>(! d8!>)! | z8 | %30
w: froids, et les sou- le- vant vers le ciel|pâle, il re- gar- dait au tra-|vers.||
 z8[Q:1/4=50]"^T"[Q:1/4=46]"^T" |[Q:1/4=42]"^T" z8[Q:1/4=38]"^T" |] %32
w: ||
V:2
!pp!"^Très lent" (G/A/B/c/) (G/A/B/c/) (G/A/B/c/) (G/A/B/c/) | %1
 (^F/G/A/B/) (F/G/A/B/) (F/G/A/B/) (F/G/A/B/) |!pp! (G/A/B/c/) (G/A/B/c/) (G/A/B/c/) (G/A/B/c/) | %3
 (F/G/A/B/) (F/G/A/B/) (F/G/A/B/) (F/G/A/B/) |!pp! (F/G/A/B/) (F/G/A/B/) (F/G/A/B/) (F/G/A/B/) | %5
 (F/G/A/B/) (^E/G/A/B/) (=G/_A/_B/=c/) (G/A/B/c/) | %6
 (=G/_A/_B/=c/) (G/A/B/c/) (G/A/B/c/) (_E/=F/G/A/) |[M:2/4] (=C/=D/_E/=F/) (_A,/_B,/C/D/) | %8
[M:4/4][K:bass]!p! ([^C,^C]2 [=E,=E]2[K:treble] !tenuto!G !tenuto!G2 F) | %9
[K:bass] ([C,C]2 [E,E]2[K:treble] !tenuto!G !tenuto!G2 B) | %10
!p! (!arpeggio![Dd]2 !arpeggio![B,B]2 !arpeggio![Dd]2) !arpeggio!!>![=G=g]!arpeggio!!>![Gg] | %11
!p! !arpeggio![Dd]2 !arpeggio![B,B]2 !arpeggio![Dd]2 !arpeggio!!>![=G=g]!arpeggio!!>![Gg] | %12
!p!!>(! !arpeggio![Dd]2 !arpeggio![B,B]2!>)!!>(! !arpeggio![Dd]2 !arpeggio![B,B]2!>)! | %13
!pp! !arpeggio!!>!!tenuto![=G,=G]2 !arpeggio!!>!!tenuto![G,G]2 !arpeggio!!>!!tenuto![G,G]2 !arpeggio!!>!!tenuto![G,G]2 | %14
!p! !>![=G,=G]2 !>![G,G]2 !>![G,G]2 !>![G,G]2 |!<(! [^A,^A]2 [A,A]2!<)!!>(! [A,A]2 [G,G]2!>)! | %16
!p! [=G,=G]2 [G,G]2 [G,G]2 [G,G]2 |!<(! ([^A,^A]3 [=B,=B])!<)!!<(! ([^B,^B]3 [Cc])!<)! | %18
!mf! ([EGc]/[F^A^d]/[FAd]/[EGc]/) ([EGc]/[FAd]/[FAd]/[EGc]/) ([EGc]/[FAd]/[FAd]/[EGc]/) ([EGc]/[FAd]/[FAd]/[EGc]/) | %19
[M:2/4] [^Acf]/"^Très dim."[=A^Bg]/[=G_B_e]/[_G=A=f]/ [E=G=c]/[_E^Fd]/[^C=EA]/[=C^DB]/ | %20
[M:4/4]!p! ([=DF]/[EG]/[DF]/[EG]/) ([DF]/[EG]/[DF]/[EG]/) ([DF]/[EG]/[F^A]/[G^B]/ [_Bd]/[=ce]/[_d=f]/[_e=g]/) | %21
!p! ([=D^F]/[=E^G]/[DF]/[EG]/) ([DF]/[EG]/[DF]/[EG]/)!<(! ([DF]/[EG]/[F^A]/[G^B]/ [_B=d]/[=ce]/[_d=f]/[_e=g]/)!<)! | %22
!mf! ([_g_b]/[_a=c']/[gb]/[ac']/)"_crescendo" ([gb]/[ac']/[gb]/[ac']/) ([gb]/[ac']/[gb]/[ac']/) ([gb]/[ac']/[gb]/[ac']/) | %23
[M:2/4] ([f^a]/[g^b]/[fa]/[gb]/) ([fa]/[gb]/[fa]/[gb]/) || %24
[K:F#][M:4/4]!f! ([cc']2 [Aa]2) [cc']2 [ff'][ff'] | ([cc']2 [Aa]2 [cc']2) [ff'][ff'] | %26
!p! [cc']2 [_B_b]2 [=G=g]2 [=E_e]2 | [B,B]2 [B,B]2 [B,B]2 [B,B]2 | %28
 [Bb]2!f!!>(! [Bb]2 [Bb]2 [Bb]2!>)! | z2!>(! (([Ff]4!>)! [Ee]2)) | %30
 z2!p! (G/A/B/c/) (G/A/B/"_Retenu"c/) (G/A/B/c/) |!f!!>(! (d/e/f/!>)!!p!g/)!>(! !fermata!d6!>)! |] %32
V:3
 G>^^F G>F G>F G>F | F>^E F>E F>E F>E | G>^^F G>F G>F G>F | F>^E F>E F>E F>E | F>^E F>E F>E F>E | %5
 F2 ^E>F =G>^F G>F | =G>^F G>F G>=F _E>D |[M:2/4] =C>_B, _A,>=G, | %8
[M:4/4][K:bass] ^F,/^G,/=A,/=B,/ A,/B,/C/D/[K:treble] C/D/E/F/ C/D/C/B,/ | %9
[K:bass] F,/G,/A,/B,/ A,/B,/C/D/[K:treble] C/D/E/F/ C/D/E/F/ | %10
 [Ac]/[=GB]/[GB]/[Ac]/ [FA]/[EG]/[EG]/[FA]/ [Ac]/[GB]/[GB]/[Ac]/ ([df]/[=ce]/)([df]/[ce]/) | %11
 ([Ac]/[=GB]/[GB]/[Ac]/) ([FA]/[EG]/[EG]/[FA]/) ([Ac]/[GB]/[GB]/[Ac]/) ([df]/[=ce]/)([df]/[ce]/) | %12
 ([Ac]/[=GB]/[GB]/[Ac]/) ([FA]/[EG]/[EG]/[FA]/) ([Ac]/[GB]/[GB]/[Ac]/) ([FA]/[EG]/[EG]/[FA]/) | %13
 ([DF]/[=CE]/[CE]/[DF]/) ([DF]/[CE]/[CE]/[DF]/) ([DF]/[CE]/[CE]/[DF]/) ([DF]/[CE]/[CE]/[DF]/) | %14
 ([DF]/[=CE]/[CE]/[DF]/) ([DF]/[CE]/[CE]/[DF]/) ([DF]/[CE]/[CE]/[DF]/) ([DF]/[CE]/[CE]/[DF]/) | %15
 ([EG]/[^DF]/[DF]/[EG]/) ([EG]/[DF]/[DF]/[EG]/) ([EG]/[DF]/[DF]/[EG]/) ([=DF]/[CE]/[CE]/[DF]/) | %16
 ([DF]/[=CE]/[CE]/[DF]/) ([DF]/[CE]/[CE]/[DF]/) ([DF]/[CE]/[CE]/[DF]/) ([DF]/[CE]/[CE]/[DF]/) | %17
 ([E^G]/[^DF]/[DF]/[EG]/) [EG]/[DF]/[DF]/[EG]/ [=F^A]/[E=G]/[EG]/[FA]/ [FA]/[EG]/[EG]/[FA]/ | x8 | %19
[M:2/4] x4 |[M:4/4] G,4- G,^B,E=G | ^G,4- G,^B,E=G | =c2 c2 c2 c2 |[M:2/4] ^B2 B2 || %24
[K:F#][M:4/4] ([g^b]/[fa]/[fa]/[gb]/) ([eg]/[df]/[df]/[eg]/) ([gb]/[fa]/[fa]/[gb]/) ([c'e']/[=bd']/)([c'e']/[bd']/) | %25
 ([g^b]/[fa]/[fa]/[gb]/) ([eg]/[df]/"_dim."[df]/[eg]/) ([gb]/[fa]/[fa]/[gb]/) ([c'e']/[=bd']/)([c'e']/[bd']/) | %26
 ([g^b]/[fa]/[fa]/[gb]/) ([=f=a]/[_e=g]/[eg]/[fa]/) ([=d^f]/[=ce]/[ce]/[df]/) ([=B^d]/[=A^c]/[Ac]/[Bd]/) | %27
 ([F^A]/[=EG]/[EG]/[FA]/) ([FA]/[EG]/[EG]/[FA]/) ([FA]/[EG]/[EG]/[FA]/) ([FA]/[EG]/[EG]/[FA]/) | %28
 ([fa]/[^eg]/[eg]/[fa]/) ([fa]/[eg]/[eg]/[fa]/) ([fa]/[eg]/[eg]/[fa]/) ([fa]/[eg]/[eg]/[fa]/) | %29
 x2 G/A/B/c/ G/A/B/c/ G/A/B/c/ | x2 (F4 E2) | [DFA]8 |] %32
V:4
 (F3 ^E ^F2 E2) | [F,G,B,D]8 | (F3 ^E F2 E2) | [F,G,B,D]8 | [A,B,D]4 [A,B,D]4 | %5
 [A,B,D]4 [_A,_B,=D]4 | [=A,_B,=D]4 [A,B,D]2 z2 |[M:2/4] _B,,,4 |[M:4/4] x4 G, G,2 F, | %9
 x4 G, G,2 B, | %10
 (!arpeggio![=G,,D,B,]2 !arpeggio![E,,B,,=G,]2 !arpeggio![G,,D,B,]2) !arpeggio!!>![=C,G,E]!arpeggio![C,G,E] | %11
 !arpeggio![=G,,D,B,]2 !arpeggio![E,,B,,=G,]2 !arpeggio![G,,D,B,]2 !arpeggio!!>![=C,G,E]!arpeggio![C,G,E] | %12
 !arpeggio![=G,,D,B,]2 !arpeggio![E,,B,,=G,]2 !arpeggio![G,,D,B,]2 !arpeggio![E,,B,,G,]2 | %13
 (!>!!tenuto!=G,,2 !>!!tenuto!G,,2 !>!!tenuto!G,,2 !>!!tenuto!G,,2) | %14
 [_B,,,_B,,]2 ([=C,,=C,][B,,,B,,]) [B,,,B,,]2 ([C,,C,][B,,,B,,]/[C,,C,]/) | %15
 ([^C,,^C,][^D,,^D,][F,,F,][G,,G,] [C,,C,]2 [B,,,B,,]2) | %16
 [_B,,,_B,,]2 ([=C,,=C,][B,,,B,,]) [B,,,B,,]2 ([C,,C,][B,,,B,,]/[C,,C,]/) | %17
 ([^C,,^C,][^D,,^D,][F,,F,][G,,G,]) ([=D,,=D,][E,,E,][=G,,=G,][A,,A,]) | %18
 (C/^D/D/C/) (C/D/D/C/) (C/D/D/C/) (C/D/D/C/) |[M:2/4] E/^D/_D/=C/ _B,/A,/=G,/F,/ | %20
[M:4/4] [E,,B,,]4- ([E,,B,,][G,,^D,][=C,=G,][_E,_B,]) | %21
 [E,,B,,]4- ([E,,B,,][G,,^D,][=C,=G,][_E,_B,]) | %22
[K:treble] (_G<_A) ([G=f]<[A_e]) (G<A) ([Gf]<[Ae]) |[M:2/4] [^F^e]<[G^d] [Fe]<[Gd] || %24
[K:F#][M:4/4][K:bass] G<A E<F G<A[K:treble] [B,Fd][B,Fd] | %25
[K:bass] (G<A) (E<F) (G<A)[K:treble] [B,Fd][B,Fd] |[K:bass] (G<A) (=F<=G) (=D<=E) (_B,<^C) | %27
 z2[K:treble]{/c'} [=egb]2{/c'} [egb]2{/c'} [egb]2 | %28
[K:bass] z2[K:treble]{/[Dd]} [CGc]2{/[Dd]} [CGc]2{/[Dd]} [CGc]2 |[K:bass] z2 [C,G,B,=D]6 | %30
 z2 [C,G,B,=D]6 | z2{/!fermata!C} !fermata!D6 |] %32
V:5
 [G,B,D]8 | z2!pp! [B,,,B,,]4 z2 | [G,B,D]8 | z2 [B,,,B,,]4 z2 | %4
 z!>(! (A,,!>)!D,,) z z!>(! (A,,!>)!D,,) z | z!>(! (A,,!>)!D,,) z z!>(! (=F,,!>)!_B,,,) z | %6
 z!>(! (=F,,!>)!_B,,,) z z!>(! (F,,!>)! B,,,2-) |[M:2/4] x4 | %8
[M:4/4] ([^F,,,^F,,]2 [A,,,A,,]2 !tenuto![C,,C,] !tenuto![C,,C,]2 [B,,,B,,]) | %9
 ([F,,,F,,]2 [A,,,A,,]2 !tenuto![C,,C,] !tenuto![C,,C,]2 [E,,E,]) | x8 | x8 | x8 | =C,,8 | x8 | %15
 x8 | x8 | x8 | ^A,2{/B,} !>!A,2{/B,} !>!A,2{/B,} !>!A,2 |[M:2/4]{/B,} (C_B, =G,E,) |[M:4/4] x8 | %21
 x8 |[K:treble] [_A,_E]2 x2 [A,E]2 x2 |[M:2/4] x4 || %24
[K:F#][M:4/4][K:bass] ([F,C]2 [D,A,]2 [F,C]2)[K:treble] x2 | %25
[K:bass] ([F,C]2 [D,A,]2 [F,C]2)[K:treble] x2 |[K:bass] [F,C]2 [_E,_B,]2 [=C,=G,]2 [=A,,=E,]2 | %27
 [E,,B,,]8[K:treble] |[K:bass] [C,,G,,]8[K:treble] |[K:bass] [F,,,C,,]8 | [F,,,C,,]8 | %31
 [F,,C,A,]8 |] %32

